papirus/32x32/apps/kanatest.svg

<?xml version="1.0" encoding="UTF-8" standalone="no"?>
<!-- Created with Inkscape (http://www.inkscape.org/) -->

<svg
   xmlns:dc="http://purl.org/dc/elements/1.1/"
   xmlns:cc="http://creativecommons.org/ns#"
   xmlns:rdf="http://www.w3.org/1999/02/22-rdf-syntax-ns#"
   xmlns:svg="http://www.w3.org/2000/svg"
   xmlns="http://www.w3.org/2000/svg"
   xmlns:sodipodi="http://sodipodi.sourceforge.net/DTD/sodipodi-0.dtd"
   xmlns:inkscape="http://www.inkscape.org/namespaces/inkscape"
   id="svg2817"
   height="32"
   width="32"
   version="1.0"
   inkscape:version="0.91 r13725"
   sodipodi:docname="kanatest.svg">
  <sodipodi:namedview
     pagecolor="#ffffff"
     bordercolor="#666666"
     borderopacity="1"
     objecttolerance="10"
     gridtolerance="10"
     guidetolerance="10"
     inkscape:pageopacity="0"
     inkscape:pageshadow="2"
     inkscape:window-width="1600"
     inkscape:window-height="849"
     id="namedview21"
     showgrid="false"
     inkscape:zoom="14.06"
     inkscape:cx="5.6770889"
     inkscape:cy="14.1958"
     inkscape:window-x="0"
     inkscape:window-y="0"
     inkscape:window-maximized="1"
     inkscape:current-layer="svg2817" />
  <metadata
     id="metadata57">
    <rdf:RDF>
      <cc:Work
         rdf:about="">
        <dc:format>image/svg+xml</dc:format>
        <dc:type
           rdf:resource="http://purl.org/dc/dcmitype/StillImage" />
        <dc:title></dc:title>
      </cc:Work>
    </rdf:RDF>
  </metadata>
  <defs
     id="defs2819" />
  <rect
     style="fill:#e9a84a"
     id="rect4203"
     transform="matrix(0,-1,-1,0,0,0)"
     rx="1.4"
     ry="1.4"
     height="28"
     width="28"
     y="-30"
     x="-30" />
  <g
     id="g4163"
     transform="matrix(0.7,0,0,0.7,1.1001957,-1.3002956)"
     style="opacity:0.4">
    <path
       style="color:#000000;font-style:normal;font-variant:normal;font-weight:normal;font-stretch:normal;font-size:medium;line-height:normal;font-family:sans-serif;text-indent:0;text-align:start;text-decoration:none;text-decoration-line:none;text-decoration-style:solid;text-decoration-color:#000000;letter-spacing:normal;word-spacing:normal;text-transform:none;direction:ltr;block-progression:tb;writing-mode:lr-tb;baseline-shift:baseline;text-anchor:start;white-space:normal;clip-rule:nonzero;display:inline;overflow:visible;visibility:visible;opacity:1;isolation:auto;mix-blend-mode:normal;color-interpolation:sRGB;color-interpolation-filters:linearRGB;solid-color:#000000;solid-opacity:1;fill:#000000;fill-opacity:1;fill-rule:evenodd;stroke:none;stroke-width:4.28571415;stroke-linecap:round;stroke-linejoin:round;stroke-miterlimit:4;stroke-dasharray:none;stroke-dashoffset:0;stroke-opacity:1;color-rendering:auto;image-rendering:auto;shape-rendering:auto;text-rendering:auto;enable-background:accumulate"
       d="M 15.533203 3.9804688 A 1.50015 1.50015 0 0 0 14.041016 5.1523438 C 14.041016 5.1523438 13.750118 6.410543 13.433594 8.2714844 C 13.430901 8.2703164 13.426474 8.2687504 13.423828 8.2675781 C 13.426405 8.2734431 13.432323 8.2822189 13.431641 8.2851562 C 13.431041 8.2886845 13.430287 8.2933422 13.429688 8.296875 C 13.412398 8.2952157 13.372908 8.2744756 13.289062 8.2226562 C 13.315895 8.2392396 13.388031 8.251717 13.423828 8.2675781 C 13.398732 8.2104698 13.247239 8.0368015 13.166016 7.8222656 C 13.036955 7.4813565 12.962891 7.1660156 12.962891 7.1660156 A 1.50015 1.50015 0 0 0 11.4375 5.9804688 A 1.50015 1.50015 0 0 0 10.037109 7.8320312 C 10.037109 7.8320312 10.146945 8.3236386 10.359375 8.8847656 C 10.571805 9.4458926 10.723099 10.164872 11.710938 10.775391 C 12.120915 11.028771 12.550126 11.20758 12.988281 11.341797 C 12.873929 12.310358 12.774091 13.329736 12.714844 14.378906 C 12.707914 14.501206 12.716888 14.627168 12.710938 14.75 C 11.919364 14.882899 11.130496 15.029866 10.402344 15.294922 C 8.576211 15.959655 6.9331966 17.098086 6.1308594 18.884766 C 5.7450566 19.743888 5.8454387 20.701182 6.1542969 21.429688 C 6.463155 22.158193 6.9469397 22.739759 7.4980469 23.238281 C 8.6002613 24.235323 9.9475886 24.95825 11.460938 24.998047 C 12.467762 25.024521 13.380116 24.705804 14.251953 24.273438 C 14.874538 25.371049 15.681656 26.323815 16.880859 26.867188 C 19.022472 27.837579 21.32063 26.961347 23.130859 25.708984 C 24.035974 25.082803 24.834654 24.314264 25.394531 23.382812 C 25.954408 22.45136 26.283271 21.269518 25.941406 20.083984 C 25.408122 18.234633 23.961978 16.921533 22.28125 16.044922 C 22.459234 15.767301 22.783203 15.277344 22.783203 15.277344 A 1.5003876 1.5003876 0 1 0 20.216797 13.724609 C 20.216797 13.724609 19.513561 14.650718 19.320312 14.949219 C 18.362748 14.719324 17.368717 14.572987 16.367188 14.515625 C 16.146739 14.502997 15.931576 14.539629 15.710938 14.535156 C 15.767481 13.539274 15.862035 12.566118 15.972656 11.640625 C 16.49703 11.615508 17.012675 11.567731 17.503906 11.517578 C 19.337482 11.330376 20.855469 10.957031 20.855469 10.957031 A 1.50015 1.50015 0 1 0 20.144531 8.0429688 C 20.144531 8.0429688 18.798542 8.3699176 17.199219 8.5332031 C 16.94396 8.5592642 16.681186 8.5629826 16.419922 8.5722656 C 16.704368 6.929608 16.958984 5.8476559 16.958984 5.8476562 A 1.50015 1.50015 0 0 0 15.533203 3.9804688 z M 16.197266 17.509766 C 16.584607 17.531949 16.948054 17.624204 17.328125 17.677734 C 17.171035 17.870561 17.207035 17.874512 17.041016 18.068359 C 16.673633 18.49732 16.253954 18.806011 15.857422 19.208984 C 15.791902 18.651586 15.711601 18.12649 15.689453 17.525391 C 15.86092 17.528891 16.025855 17.499952 16.197266 17.509766 z M 12.685547 17.822266 C 12.738544 19.075877 12.873787 20.307521 13.140625 21.466797 C 12.519735 21.791873 11.947233 22.010683 11.541016 22 C 11.169399 21.990228 10.129423 21.574202 9.5097656 21.013672 C 9.1999365 20.733407 8.9902142 20.432824 8.9160156 20.257812 C 8.8418177 20.082801 8.8687206 20.114227 8.8691406 20.113281 C 9.229502 19.310812 10.096064 18.598735 11.429688 18.113281 C 11.802869 17.977439 12.259668 17.914944 12.685547 17.822266 z M 20.466797 18.521484 C 20.578116 18.571737 20.722782 18.598888 20.828125 18.652344 C 22.073979 19.284553 22.816565 20.076696 23.058594 20.916016 C 23.113978 21.108071 23.094263 21.386677 22.824219 21.835938 C 22.554178 22.285198 22.041546 22.816788 21.423828 23.244141 C 20.188393 24.098846 18.589359 24.345874 18.119141 24.132812 C 17.54557 23.872921 17.096972 23.276891 16.712891 22.515625 C 17.633803 21.724231 18.558676 20.908829 19.320312 20.019531 C 19.787629 19.473886 20.073403 19.037712 20.466797 18.521484 z "
       transform="matrix(1.4285714,0,0,1.4285714,-1.5717081,1.8575651)"
       id="path4159" />
  </g>
  <path
     style="fill:#ffffff;fill-opacity:1;opacity:0.2"
     d="M 3.4003906 2 C 2.6247906 2 2 2.6247906 2 3.4003906 L 2 4.4003906 C 2 3.6247906 2.6247906 3 3.4003906 3 L 28.599609 3 C 29.375209 3 30 3.6247906 30 4.4003906 L 30 3.4003906 C 30 2.6247906 29.375209 2 28.599609 2 L 3.4003906 2 z "
     id="rect4290" />
  <path
     style="fill:#000000;fill-opacity:1;opacity:0.3"
     d="M 2 27.599609 L 2 28.599609 C 2 29.375209 2.6247906 30 3.4003906 30 L 28.599609 30 C 29.375209 30 30 29.375209 30 28.599609 L 30 27.599609 C 30 28.375209 29.375209 29 28.599609 29 L 3.4003906 29 C 2.6247906 29 2 28.375209 2 27.599609 z "
     id="rect4295" />
</svg>

<?xml version="1.0" encoding="UTF-8" standalone="no"?>
<svg id="svg2817" xmlns:rdf="http://www.w3.org/1999/02/22-rdf-syntax-ns#" xmlns="http://www.w3.org/2000/svg" height="32" width="32" version="1.0" xmlns:cc="http://creativecommons.org/ns#" xmlns:dc="http://purl.org/dc/elements/1.1/">
 <metadata id="metadata57">
  <rdf:RDF>
   <cc:Work rdf:about="">
    <dc:format>image/svg+xml</dc:format>
    <dc:type rdf:resource="http://purl.org/dc/dcmitype/StillImage"/>
    <dc:title/>
   </cc:Work>
  </rdf:RDF>
 </metadata>
 <rect id="rect4203" transform="matrix(0,-1,-1,0,0,0)" rx="1.4" ry="1.4" height="28" width="28" y="-30" x="-30" fill="#e9a84a"/>
 <g id="g4163" opacity=".4" transform="matrix(.7 0 0 .7 1.1002 -1.3003)">
  <path id="path4159" opacity="1" style="color-rendering:auto;text-decoration-color:#000000;color:#000000;isolation:auto;mix-blend-mode:normal;shape-rendering:auto;solid-color:#000000;block-progression:tb;text-decoration-line:none;text-decoration-style:solid;image-rendering:auto;white-space:normal;text-indent:0;text-transform:none" d="m15.533 3.9805a1.5002 1.5002 0 0 0 -1.492 1.1718s-0.291 1.2582-0.607 3.1192c-0.003-0.0012-0.008-0.0027-0.01-0.0039 0.002 0.0058 0.008 0.0146 0.008 0.0176-0.001 0.0035-0.002 0.0081-0.002 0.0117-0.018-0.0017-0.057-0.0224-0.141-0.0742 0.027 0.0165 0.099 0.029 0.135 0.0449-0.025-0.0571-0.177-0.2308-0.258-0.4453-0.129-0.3409-0.203-0.6563-0.203-0.6563a1.5002 1.5002 0 0 0 -1.525 -1.1855 1.5002 1.5002 0 0 0 -1.401 1.8515s0.11 0.4916 0.322 1.0528c0.213 0.5611 0.364 1.2802 1.352 1.8902 0.41 0.254 0.839 0.433 1.277 0.567-0.114 0.968-0.214 1.988-0.273 3.037-0.007 0.122 0.002 0.248-0.004 0.371-0.792 0.133-1.581 0.28-2.309 0.545-1.8258 0.665-3.4688 1.803-4.2711 3.59-0.3858 0.859-0.2855 1.816 0.0234 2.545 0.3089 0.728 0.7926 1.31 1.3437 1.808 1.1023 0.997 2.4496 1.72 3.963 1.76 1.007 0.027 1.919-0.292 2.791-0.725 0.623 1.098 1.43 2.051 2.629 2.594 2.141 0.971 4.44 0.094 6.25-1.158 0.905-0.626 1.704-1.395 2.264-2.326 0.559-0.932 0.888-2.113 0.546-3.299-0.533-1.849-1.979-3.162-3.66-4.039 0.178-0.278 0.502-0.768 0.502-0.768a1.5004 1.5004 0 1 0 -2.566 -1.552s-0.703 0.926-0.897 1.224c-0.957-0.23-1.951-0.376-2.953-0.433-0.22-0.013-0.435 0.024-0.656 0.019 0.056-0.996 0.151-1.969 0.262-2.894 0.524-0.025 1.04-0.073 1.531-0.123 1.833-0.188 3.351-0.561 3.351-0.561a1.5002 1.5002 0 1 0 -0.71 -2.914s-1.346 0.3269-2.946 0.4902c-0.255 0.0261-0.518 0.0298-0.779 0.0391 0.284-1.6427 0.539-2.7246 0.539-2.7246a1.5002 1.5002 0 0 0 -1.426 -1.8672zm0.664 13.53c0.388 0.022 0.751 0.114 1.131 0.168-0.157 0.193-0.121 0.197-0.287 0.39-0.367 0.429-0.787 0.738-1.184 1.141-0.065-0.557-0.145-1.083-0.168-1.684 0.172 0.004 0.337-0.025 0.508-0.015zm-3.511 0.312c0.053 1.254 0.188 2.486 0.455 3.645-0.621 0.325-1.194 0.544-1.6 0.533-0.372-0.01-1.412-0.426-2.0312-0.986-0.3099-0.281-0.5196-0.581-0.5938-0.756s-0.0473-0.144-0.0469-0.145c0.3604-0.802 1.2269-1.514 2.5609-2 0.373-0.136 0.83-0.198 1.256-0.291zm7.781 0.699c0.111 0.051 0.256 0.078 0.361 0.131 1.246 0.633 1.989 1.425 2.231 2.264 0.055 0.192 0.035 0.471-0.235 0.92s-0.782 0.981-1.4 1.408c-1.236 0.855-2.835 1.102-3.305 0.889-0.573-0.26-1.022-0.856-1.406-1.617 0.921-0.792 1.846-1.607 2.607-2.496 0.468-0.546 0.753-0.982 1.147-1.499z" fill-rule="evenodd" transform="matrix(1.4286 0 0 1.4286 -1.5717 1.8576)"/>
 </g>
 <path id="rect4290" opacity=".2" d="m3.4004 2c-0.7756 0-1.4004 0.6248-1.4004 1.4004v1c0-0.7756 0.6248-1.4004 1.4004-1.4004h25.2c0.775 0 1.4 0.6248 1.4 1.4004v-1c0-0.7756-0.625-1.4004-1.4-1.4004h-25.2z" fill="#fff"/>
 <path id="rect4295" opacity=".2" d="m2 28.6v1c0 0.775 0.6248 1.4 1.4004 1.4h25.2c0.775 0 1.4-0.625 1.4-1.4v-1c0 0.775-0.625 1.4-1.4 1.4h-25.2c-0.7752 0-1.4-0.625-1.4-1.4z"/>
</svg>
